!!!COM: Beethoven
!!!OTL: Zehn Variationen uber "la stessa, la stessissima" aus "Falstaff" von A. Salieri
!!!Variation: Variation 10 f
**function	**harm	**kern	**kern
*	*	*clefF4	*clefG2
*	*	*k[b-e-]	*k[b-e-]
*M3/8	*M3/8	*M3/8	*M3/8
*B-:	*B-:	*B-:	*B-:
=285	=285	=285	=285
4.T	4.I	16BB-LL	8B-'
.	.	16B-	.
.	.	16F	[4d [4f [4b-
.	.	16D	.
.	.	16BB-	.
.	.	16FJJ	.
=286	=286	=286	=286
4.T	4.I	16DLL	8d] 8f] 8b-]
.	.	16BB-	.
.	.	16FF	[4f [4b- [4dd
.	.	16DD	.
.	.	16BBB-	.
.	.	16FFJJ	.
=287	=287	=287	=287
4.T	4.V	16FFFLL	8f] 8b-] 8dd]
.	.	16AAA	.
.	.	16CC	[4f [4a [4cc
.	.	16FF	.
.	.	16AA	.
.	.	16CJJ	.
=288	=288	=288	=288
4.T	4.V	16ELL	8fL] 8a] 8cc]
.	.	16F	.
.	.	16E	8f'
.	.	16F	.
.	.	16E	8f'J
.	.	16FJJ	.
=289	=289	=289	=289
4.T	4.V7	16FLL	8f'
.	.	16e-	.
.	.	16c	[4f [4a [4cc
.	.	16A	.
.	.	16F	.
.	.	16cJJ	.
=290	=290	=290	=290
4.T	4.V7	16ALL	8f] 8a] 8cc]
.	.	16F	.
.	.	16E-	[4f [4a [4cc [4ff
.	.	16C	.
.	.	16AA	.
.	.	16FFJJ	.
=291	=291	=291	=291
4.T	4.I	16BBB-LL	8f] 8a] 8cc] 8ff]
.	.	16DD	.
.	.	16FF	[4f [4b- [4dd
.	.	16BB-	.
.	.	16D	.
.	.	16FJJ	.
=292	=292	=292	=292
4.T	4.I	16ALL	8fL] 8b-] 8dd]
.	.	16B-	.
.	.	16A	8b-'
.	.	16B-	.
.	.	16A	8b-'J
.	.	16B-JJ	.
=293	=293	=293	=293
4.T	4.IV	16E-LL	8g' 8b-'
.	.	16e-	.
.	.	16B-	[4g [4b- [4ee-
.	.	16G	.
.	.	16E-	.
.	.	16B-JJ	.
=294	=294	=294	=294
4.T	4.IV	16GLL	8g] 8b-] 8ee-]
.	.	16E-	.
.	.	16BB-	[4g [4b- [4ee- [4gg
.	.	16G	.
.	.	16E-	.
.	.	16BB-JJ	.
=295	=295	=295	=295
4.T	4.I	16BBB-LL	8g] 8b-] 8ee-] 8gg]
.	.	16BB-	.
.	.	16D	[4f [4b- [4dd [4ff
.	.	16F	.
.	.	16BB-	.
.	.	16DJJ	.
=296	=296	=296	=296
4.T	4.I	16FLL	8f] 8b-] 8dd] 8ff]
.	.	16B-	.
.	.	16BB-	[4f [4b- [4dd
.	.	16D	.
.	.	16F	.
.	.	16B-JJ	.
=297	=297	=297	=297
4.P	4.IV	16EE-LL	8f] 8b-] 8dd]
.	.	16E-	.
.	.	16D	[4g [4cc [4ee-
.	.	16E-	.
.	.	16EE-	.
.	.	16E-JJ	.
=298	=298	=298	=298
4.D	4.V	16FFLL	8g] 8cc] 8ee-]
.	.	16F	.
.	.	16E	4e- 4a 4cc
.	.	16F	.
.	.	16FF	.
.	.	16FJJ	.
=299	=299	=299	=299
4.T	4.I	4BB-	4d 4b-
.	.	8BB-^ 8B-^	8d^ 8f^
=300	=300	=300	=300
4.T	4.I	4BB- 4B-	4d 4f
.	.	8BB-^ 8B-^	8d^ 8f^
=301	=301	=301	=301
4.T	4.I	4BB- 4B-	4d 4f
.	.	8BB-^ 8B-^	8d^ 8f^
=302	=302	=302	=302
4.T	4.I	4BB- 4B-	4d 4f
.	.	8BB-^ 8B-^	8d^ 8f^
=303	=303	=303	=303
4.T	4.ivc	4BB- 4B-	4e- 4g-
.	.	8BB-^ 8B-^	8e-^ 8g-^
=304	=304	=304	=304
4.T	4.ivc	4BB- 4B-	4e- 4g-
.	.	8BB-^ 8B-^	8e-^ 8g-^
=305	=305	=305	=305
4.T	4.ivc	4BB- 4B-	4e- 4g-
.	.	8BB-^ 8B-^	8e-^ 8g-^
=306	=306	=306	=306
4.T	4.ivc	4BB- 4B-	4e- 4g-
.	.	8BB-^ 8B-^	8e-^ 8g-^
=307	=307	=307	=307
4.T	4.I/-II	(4C-' 4c-'	(4e-' 4g-'
.	.	8C-') 8c-'	8e-') 8g-'
=308	=308	=308	=308
4.T	4.I/-II	(4C-' 4c-'	(4e-' 4g-'
.	.	8C-') 8c-'	8e-') 8g-'
=309	=309	=309	=309
4.T	4.I/-II	(4C-' 4c-'	(4e-' 4g-'
.	.	8C-') 8c-'	8e-') 8g-'
=310	=310	=310	=310
4.T	4.I/-II	(4C-' 4c-'	(4e-' 4g-'
.	.	8C-') 8c-'	8e-') 8g-'
*-	*-	*-	*-
